X:128
T: Jimmy Doyle's
M: 2/4
L: 1/8
R: polka
K:Amaj
ce ef|ec cB/c/|ec Bc|ec A>B|ce ef|ec cB/c/|eA cB|1 BA A>B:|2 BA A2||
|:ea ab/a/|gf f>g|fe ce|fe cB|ea ab/a/|gf f/g/a/f/|eA cB|1 BA A2:|2 BA A>B||
